source/img/sprite/leaf.svg

<svg width="22" height="22" viewBox="0 0 22 22" fill="none" xmlns="http://www.w3.org/2000/svg">
<path d="M10.6903 16.2442C10.0125 13.3813 8.01953 10.9718 5.27543 9.69773C3.92399 9.07026 2.46282 8.75181 1 8.74238C1.08555 10.771 1.83429 12.7457 3.17529 14.367C5.06036 16.646 7.9121 17.9803 10.933 17.9998C10.9083 17.4135 10.828 16.8259 10.6903 16.2442ZM10.6903 16.2442C10.1339 13.894 8.69109 11.8494 6.67408 10.4875C6.70814 10.2845 6.74903 10.0818 6.79684 9.87988C7.37026 7.4577 8.88519 5.36004 11 4C13.1147 5.36004 14.6297 7.4577 15.2031 9.87988C15.2509 10.0818 15.2918 10.2845 15.3258 10.4875C13.3088 11.8493 11.8661 13.894 11.3097 16.2442M10.6903 16.2442C10.8279 16.8257 10.9082 17.4131 10.933 17.9992C10.9748 17.9997 11.0166 18 11.0585 18C11.9054 18 12.7394 17.8966 13.5431 17.698C13.5477 17.692 13.5522 17.6859 13.5567 17.6799C12.752 17.8849 11.9162 17.9943 11.067 17.9998M11.3097 16.2442C11.9875 13.3813 13.9805 10.9718 16.7246 9.69773C18.076 9.07026 19.5372 8.75181 21 8.74238C20.9144 10.771 20.1657 12.7457 18.8247 14.367C16.9396 16.646 14.0879 17.9803 11.067 17.9998M11.3097 16.2442C11.172 16.8259 11.0917 17.4135 11.067 17.9998" stroke="#0266C1" stroke-linecap="round" stroke-linejoin="round"/>
</svg>

<svg viewBox="0 0 22 22" fill="none" xmlns="http://www.w3.org/2000/svg"><path d="M10.69 16.24a9.72 9.72 0 0 0-5.41-6.54 10.31 10.31 0 0 0-4.28-.96c.09 2.03.83 4 2.18 5.63a10.15 10.15 0 0 0 7.75 3.63 9.32 9.32 0 0 0-.24-1.76Zm0 0a9.6 9.6 0 0 0-4.02-5.75l.13-.61a9.65 9.65 0 0 1 4.2-5.88 9.65 9.65 0 0 1 4.33 6.49 9.64 9.64 0 0 0-4.02 5.75m-.62 0c.14.59.22 1.17.24 1.76a10.49 10.49 0 0 0 2.61-.3l.02-.02c-.8.2-1.64.31-2.5.32m.25-1.76a9.72 9.72 0 0 1 5.41-6.54c1.36-.63 2.82-.95 4.28-.96-.09 2.03-.83 4-2.18 5.63a10.15 10.15 0 0 1-7.75 3.63m.24-1.76a9.32 9.32 0 0 0-.24 1.76" stroke="#0266C1" stroke-linecap="round" stroke-linejoin="round"/></svg>
